svg/clockface/clockfacefatsolid/clock_05_10.svg

<?xml version="1.0" encoding="UTF-8" standalone="no"?>
<svg
   height="1000"
   width="1000"
   version="1.1"
   id="h00m00"
   viewBox="0 0 1000 1000"
   sodipodi:docname="clock_05_10.svg"
   xmlns:inkscape="http://www.inkscape.org/namespaces/inkscape"
   xmlns:sodipodi="http://sodipodi.sourceforge.net/DTD/sodipodi-0.dtd"
   xmlns="http://www.w3.org/2000/svg"
   xmlns:svg="http://www.w3.org/2000/svg">
  <defs
     id="defs10" />
  <sodipodi:namedview
     id="namedview8"
     pagecolor="#ffffff"
     bordercolor="#000000"
     borderopacity="0.25"
     inkscape:showpageshadow="2"
     inkscape:pageopacity="0.0"
     inkscape:pagecheckerboard="0"
     inkscape:deskcolor="#d1d1d1" />
  <path
     id="path14"
     style="color:#000000;fill:#000000;stroke-width:60;-inkscape-stroke:none"
     d="M 500 130 C 296.01059 130 130 296.01059 130 500 C 130 703.98941 296.01059 870 500 870 C 703.98941 870 870 703.98941 870 500 C 870 296.01059 703.98941 130 500 130 z M 696.50586 340.35938 L 736.50586 409.64062 L 701.86523 429.64062 L 554.64062 514.64062 L 604.64062 601.24414 L 624.64062 635.88477 L 555.35938 675.88477 L 535.35938 641.24414 L 465.35938 520 A 40.004 40.004 0 0 1 460.34375 505.2207 A 40.004 40.004 0 0 1 480 465.35938 L 661.86523 360.35938 L 696.50586 340.35938 z " />
</svg>

<svg xmlns="http://www.w3.org/2000/svg" width="1000" height="1000"><path d="M500 130c-203.99 0-370 166.01-370 370s166.01 370 370 370 370-166.01 370-370-166.01-370-370-370zm196.506 210.36 40 69.28-34.64 20-147.225 85 50 86.604 20 34.64-69.282 40-20-34.64-70-121.244a40.004 40.004 0 0 1-5.015-14.78A40.004 40.004 0 0 1 480 465.36l181.865-105 34.64-20z" style="-inkscape-stroke:none" stroke-width="60"/></svg>
